icons/elementplus-light.svg

<svg width="256" height="256" viewBox="0 0 256 256" fill="none" xmlns="http://www.w3.org/2000/svg">
<path d="M196 0H60C26.8629 0 0 26.8629 0 60V196C0 229.137 26.8629 256 60 256H196C229.137 256 256 229.137 256 196V60C256 26.8629 229.137 0 196 0Z" fill="#F4F2ED"/>
<path fill-rule="evenodd" clip-rule="evenodd" d="M224 174.827C224 183.872 219.214 185.946 219.214 185.946C219.214 185.946 137.629 232.957 132.324 235.953C130.966 236.641 129.465 237 127.942 237C126.42 237 124.918 236.641 123.56 235.953C123.56 235.953 38.2847 186.522 35.1712 184.333C34.2357 183.68 33.4632 182.821 32.9133 181.822C32.3634 180.823 32.0509 179.711 32 178.572C32 178.572 32 80.6321 32 76.1384C32 71.6447 37.7658 68.476 37.7658 68.476L122.811 19.2181C124.413 18.4171 126.18 18 127.971 18C129.763 18 131.529 18.4171 133.132 19.2181C133.132 19.2181 208.432 62.9453 216.505 67.6695C218.79 68.6556 220.712 70.3279 222.003 72.4545C223.295 74.581 223.892 77.0565 223.712 79.5375C223.712 79.5375 223.712 166.358 223.712 174.827H224ZM189.982 76.8873C172.685 66.8629 131.402 43.0693 131.402 43.0693C130.139 42.4403 128.748 42.1129 127.337 42.1129C125.926 42.1129 124.535 42.4403 123.272 43.0693L56.3315 81.381C56.3315 81.381 51.8919 84.0312 51.9495 87.6031C52.0072 91.175 51.9495 167.798 51.9495 167.798C52.013 168.658 52.2686 169.493 52.6977 170.24C53.1268 170.988 53.7184 171.63 54.4288 172.119C56.9081 173.848 123.618 212.447 123.618 212.447C124.679 212.993 125.855 213.278 127.049 213.278C128.242 213.278 129.418 212.993 130.479 212.447C134.631 210.143 198.631 173.329 198.631 173.329C198.631 173.329 202.378 171.716 202.378 164.63C202.378 162.556 202.378 154.605 202.378 144.639L127.308 190.152V172.868C127.437 170.599 128.013 168.378 129.002 166.332C129.992 164.285 131.375 162.454 133.074 160.943L199.726 120.615C201.658 118.223 202.769 115.274 202.897 112.203C202.897 104.887 202.897 98.5493 202.897 94.5165L127.308 140.145V121.709C127.233 119.735 127.628 117.771 128.46 115.978C129.292 114.185 130.537 112.615 132.094 111.397L189.982 76.8873Z" fill="#409EFF"/>
</svg>

<svg xmlns="http://www.w3.org/2000/svg" width="256" height="256" fill="none"><path fill="#F4F2ED" d="M196 0H60C26.863 0 0 26.863 0 60v136c0 33.137 26.863 60 60 60h136c33.137 0 60-26.863 60-60V60c0-33.137-26.863-60-60-60"/><path fill="#409EFF" fill-rule="evenodd" d="M224 174.827c0 9.045-4.786 11.119-4.786 11.119s-81.585 47.011-86.89 50.007a9.7 9.7 0 0 1-8.764 0s-85.275-49.431-88.389-51.62A7.43 7.43 0 0 1 32 178.572V76.138c0-4.493 5.766-7.662 5.766-7.662l85.045-49.258a11.54 11.54 0 0 1 10.321 0s75.3 43.727 83.373 48.451a11.99 11.99 0 0 1 7.207 11.868v95.29zm-34.018-97.94c-17.297-10.024-58.58-33.818-58.58-33.818a9.12 9.12 0 0 0-8.13 0l-66.94 38.312s-4.44 2.65-4.382 6.222c.057 3.572 0 80.195 0 80.195a5.75 5.75 0 0 0 2.479 4.321c2.48 1.729 69.189 40.328 69.189 40.328a7.5 7.5 0 0 0 6.861 0c4.152-2.304 68.152-39.118 68.152-39.118s3.747-1.613 3.747-8.699v-19.991l-75.07 45.513v-17.284a17.27 17.27 0 0 1 5.766-11.925l66.652-40.328a14.34 14.34 0 0 0 3.171-8.412V94.516l-75.589 45.629v-18.436a12.49 12.49 0 0 1 4.786-10.312z" clip-rule="evenodd"/></svg>
